X: 1569
T: Angus Allan & Dan J's
R: strathspey
M: 4/4
K: Dmajor
(3DFG|A>B A<F E2 (3EFG|A>B A<F A2 =c2|B<d A>F E>D E<F|D<B, C<A, D2:|
|:D>E|D>f a<f g2 f>e|d>f a>b a>f e<f|d<B A>F E>D E<F|D<B, C<A, D2:|

